dist/images/why-icon-calc.svg

<svg width="17" height="20" viewBox="0 0 17 20" fill="none" xmlns="http://www.w3.org/2000/svg">
<path d="M12 16.5C12.6213 16.5 13.125 15.9963 13.125 15.375C13.125 14.7537 12.6213 14.25 12 14.25C11.3787 14.25 10.875 14.7537 10.875 15.375C10.875 15.9963 11.3787 16.5 12 16.5Z" fill="#112E49"/>
<path d="M8.25 16.5C8.87132 16.5 9.375 15.9963 9.375 15.375C9.375 14.7537 8.87132 14.25 8.25 14.25C7.62868 14.25 7.125 14.7537 7.125 15.375C7.125 15.9963 7.62868 16.5 8.25 16.5Z" fill="#112E49"/>
<path d="M4.5 16.5C5.12132 16.5 5.625 15.9963 5.625 15.375C5.625 14.7537 5.12132 14.25 4.5 14.25C3.87868 14.25 3.375 14.7537 3.375 15.375C3.375 15.9963 3.87868 16.5 4.5 16.5Z" fill="#112E49"/>
<path d="M12 12.75C12.6213 12.75 13.125 12.2463 13.125 11.625C13.125 11.0037 12.6213 10.5 12 10.5C11.3787 10.5 10.875 11.0037 10.875 11.625C10.875 12.2463 11.3787 12.75 12 12.75Z" fill="#112E49"/>
<path d="M8.25 12.75C8.87132 12.75 9.375 12.2463 9.375 11.625C9.375 11.0037 8.87132 10.5 8.25 10.5C7.62868 10.5 7.125 11.0037 7.125 11.625C7.125 12.2463 7.62868 12.75 8.25 12.75Z" fill="#112E49"/>
<path d="M4.5 12.75C5.12132 12.75 5.625 12.2463 5.625 11.625C5.625 11.0037 5.12132 10.5 4.5 10.5C3.87868 10.5 3.375 11.0037 3.375 11.625C3.375 12.2463 3.87868 12.75 4.5 12.75Z" fill="#112E49"/>
<path fill-rule="evenodd" clip-rule="evenodd" d="M15 0C15.8284 0 16.5 0.671573 16.5 1.5V18C16.5 18.8284 15.8284 19.5 15 19.5H1.5C0.671572 19.5 0 18.8284 0 18V1.5C0 0.671573 0.671572 0 1.5 0L15 0ZM15 18L15 1.5L1.5 1.5L1.5 18H15Z" fill="#112E49"/>
<path fill-rule="evenodd" clip-rule="evenodd" d="M3 3.75C3 3.33579 3.33579 3 3.75 3H12.75C13.1642 3 13.5 3.33579 13.5 3.75V8.25C13.5 8.66421 13.1642 9 12.75 9H3.75C3.33579 9 3 8.66421 3 8.25V3.75ZM4.5 4.5V7.5H12V4.5H4.5Z" fill="#112E49"/>
<path opacity="0.36" d="M12.75 3.75H3.75V8.25H12.75V3.75Z" fill="url(#paint0_linear_955_12057)"/>
<defs>
<linearGradient id="paint0_linear_955_12057" x1="8.25" y1="3.75" x2="8.25" y2="8.25" gradientUnits="userSpaceOnUse">
<stop stop-color="#4396D2"/>
<stop offset="1" stop-color="#1E6CB4"/>
</linearGradient>
</defs>
</svg>

<svg width="17" height="20" fill="none" xmlns="http://www.w3.org/2000/svg"><path d="M12 16.5a1.125 1.125 0 100-2.25 1.125 1.125 0 000 2.25zm-3.75 0a1.125 1.125 0 100-2.25 1.125 1.125 0 000 2.25zm-3.75 0a1.125 1.125 0 100-2.25 1.125 1.125 0 000 2.25zm7.5-3.75a1.125 1.125 0 100-2.25 1.125 1.125 0 000 2.25zm-3.75 0a1.125 1.125 0 100-2.25 1.125 1.125 0 000 2.25zm-3.75 0a1.125 1.125 0 100-2.25 1.125 1.125 0 000 2.25z" fill="#112E49"/><path fill-rule="evenodd" clip-rule="evenodd" d="M15 0a1.5 1.5 0 011.5 1.5V18a1.5 1.5 0 01-1.5 1.5H1.5A1.5 1.5 0 010 18V1.5A1.5 1.5 0 011.5 0H15zm0 18V1.5H1.5V18H15z" fill="#112E49"/><path fill-rule="evenodd" clip-rule="evenodd" d="M3 3.75A.75.75 0 013.75 3h9a.75.75 0 01.75.75v4.5a.75.75 0 01-.75.75h-9A.75.75 0 013 8.25v-4.5zm1.5.75v3H12v-3H4.5z" fill="#112E49"/><path opacity=".36" d="M12.75 3.75h-9v4.5h9v-4.5z" fill="url(#paint0_linear_955_12057)"/><defs><linearGradient id="paint0_linear_955_12057" x1="8.25" y1="3.75" x2="8.25" y2="8.25" gradientUnits="userSpaceOnUse"><stop stop-color="#4396D2"/><stop offset="1" stop-color="#1E6CB4"/></linearGradient></defs></svg>
